X: 7970
T:Tune from Micho Russell, 3
R:Jig
M:6/8
O:Ireland
Z:transcribed by Andy Hornby, from a recording of a session.
K:G
G2B BAG| Bcd dBG| cde dBG| BAG A2B|\
G2B BAG| Bcd dBG| cde dBG| AGF G3:|
|:g2g agf| efg dBG| cde dBG| BAG A2d\
|1  g2g agf| efg dBG|
cde dBG| AGF G3 :|2 \
G2B BAG| Bcd dBG| cde dBG| AGF G3 |]
